static/img/menus/ico-aibtn.svg

<svg width="16" height="16" viewBox="0 0 16 16" fill="none" xmlns="http://www.w3.org/2000/svg">
<g clip-path="url(#clip0_953_95)">
<path d="M6.7992 6.61757V6.59917C6.79905 6.57352 6.79274 6.54827 6.7808 6.52557C6.7733 6.51895 6.76455 6.51391 6.75507 6.51075C6.74558 6.50759 6.73556 6.50637 6.7256 6.50717C6.49846 6.48632 6.27587 6.43074 6.0656 6.34237C5.93728 6.29454 5.81445 6.23313 5.6992 6.15917C5.34753 5.95645 5.07593 5.63938 4.9296 5.26077C4.91357 5.21712 4.89514 5.17439 4.8744 5.13277C4.80856 4.92239 4.75356 4.70878 4.7096 4.49277C4.70259 4.46594 4.69005 4.44087 4.6728 4.41917C4.65023 4.40667 4.62498 4.39981 4.5992 4.39917C4.57398 4.40216 4.54925 4.40835 4.5256 4.41757C4.51063 4.43901 4.50408 4.46521 4.5072 4.49117C4.45199 4.7081 4.38468 4.92176 4.3056 5.13117C4.29643 5.17467 4.28413 5.21745 4.2688 5.25917C4.12196 5.63888 3.84913 5.95661 3.496 6.15917C3.19436 6.35759 2.8478 6.47724 2.488 6.50717C2.46204 6.50405 2.43583 6.5106 2.4144 6.52557C2.40245 6.54827 2.39614 6.57352 2.396 6.59917V6.61757C2.39822 6.63705 2.40449 6.65585 2.4144 6.67277C2.4361 6.69003 2.46117 6.70256 2.488 6.70957C2.84738 6.72758 3.1954 6.84138 3.496 7.03917C3.84282 7.24789 4.11301 7.56297 4.2664 7.93757C4.364 8.21864 4.444 8.4813 4.5064 8.72557C4.5056 8.73554 4.50681 8.74556 4.50998 8.75504C4.51314 8.76453 4.51818 8.77328 4.5248 8.78077C4.54845 8.78999 4.57318 8.79618 4.5984 8.79917C4.62405 8.79903 4.64929 8.79272 4.672 8.78077C4.68706 8.7644 4.69948 8.74577 4.7088 8.72557C4.76409 8.4582 4.8376 8.19492 4.9288 7.93757C5.08218 7.56297 5.35238 7.24789 5.6992 7.03917C5.81445 6.96521 5.93728 6.9038 6.0656 6.85597C6.27639 6.77231 6.4992 6.72289 6.7256 6.70957C6.7458 6.70025 6.76442 6.68784 6.7808 6.67277C6.79071 6.65585 6.79697 6.63705 6.7992 6.61757Z" fill="#BAFF51"/>
<path d="M15.9992 4.82882V4.79922C15.9986 4.75739 15.9882 4.71628 15.9688 4.67922C15.9566 4.66846 15.9424 4.66023 15.9271 4.65501C15.9117 4.64979 15.8954 4.64769 15.8792 4.64882C15.5075 4.61472 15.1433 4.52379 14.7992 4.37922C14.5891 4.30089 14.3879 4.20031 14.1992 4.07922C13.6222 3.74814 13.1763 3.2291 12.936 2.60882C12.91 2.53735 12.8801 2.46738 12.8464 2.39922C12.7394 2.05389 12.6502 1.7033 12.5792 1.34882C12.5677 1.30509 12.5473 1.26422 12.5192 1.22882C12.4821 1.20968 12.441 1.19954 12.3992 1.19922C12.3581 1.20399 12.3178 1.21394 12.2792 1.22882C12.2547 1.26372 12.2438 1.30644 12.2488 1.34882C12.1587 1.70484 12.0486 2.05553 11.9192 2.39922C11.9043 2.47044 11.8842 2.54049 11.8592 2.60882C11.6197 3.2286 11.175 3.74757 10.5992 4.07922C10.1055 4.40383 9.53839 4.59966 8.94959 4.64882C8.90722 4.64386 8.8645 4.65468 8.82959 4.67922C8.81018 4.71628 8.79976 4.75739 8.79919 4.79922V4.82882C8.80302 4.86047 8.81337 4.89098 8.82959 4.91842C8.865 4.94653 8.90586 4.96697 8.94959 4.97842C9.53786 5.00831 10.1074 5.19503 10.5992 5.51922C11.1664 5.86072 11.6083 6.37612 11.8592 6.98882C12.0192 7.44909 12.1493 7.87922 12.2496 8.27922C12.2485 8.29542 12.2506 8.31169 12.2558 8.32707C12.261 8.34246 12.2692 8.35665 12.28 8.36882C12.3186 8.38397 12.3589 8.39419 12.4 8.39922C12.4418 8.39865 12.4829 8.38823 12.52 8.36882C12.5445 8.34224 12.5648 8.31201 12.58 8.27922C12.6704 7.84138 12.7907 7.41024 12.94 6.98882C13.1907 6.37623 13.6323 5.86085 14.1992 5.51922C14.3879 5.39812 14.5891 5.29755 14.7992 5.21922C15.1441 5.08217 15.5087 5.00114 15.8792 4.97922C15.912 4.96398 15.9422 4.94374 15.9688 4.91922C15.9851 4.89154 15.9955 4.86074 15.9992 4.82882Z" fill="#51CFFF"/>
<path d="M14.8 8.36565V12.6856C14.8155 12.8697 14.7892 13.0549 14.723 13.2273C14.6568 13.3997 14.5525 13.555 14.4178 13.6814C14.2832 13.8078 14.1217 13.9022 13.9454 13.9573C13.7691 14.0125 13.5827 14.0271 13.4 14H2.59998C1.66638 14 1.19998 13.6216 1.19998 12.688V4.21285C1.1829 4.02472 1.2074 3.83515 1.27172 3.65754C1.33604 3.47993 1.43861 3.31863 1.57218 3.18506C1.70575 3.05148 1.86705 2.94891 2.04466 2.88459C2.22227 2.82027 2.41185 2.79578 2.59998 2.81285L8.36958 2.80005" stroke="currentColor" stroke-linecap="round"/>
<path d="M10.7991 10.02V9.99998C10.7988 9.97211 10.792 9.9447 10.7791 9.91998C10.771 9.91274 10.7615 9.90723 10.7512 9.90379C10.7409 9.90036 10.73 9.89906 10.7191 9.89998C10.4714 9.87716 10.2285 9.81646 9.99915 9.71998C9.85907 9.66775 9.72497 9.60071 9.59915 9.51998C9.21537 9.29891 8.91891 8.95304 8.75915 8.53998C8.7407 8.49217 8.71961 8.44543 8.69595 8.39998C8.624 8.16988 8.56392 7.93624 8.51595 7.69998C8.50832 7.67082 8.49469 7.64357 8.47595 7.61998C8.45122 7.60712 8.42381 7.60027 8.39595 7.59998C8.36854 7.60324 8.34166 7.60996 8.31595 7.61998C8.29971 7.64329 8.29259 7.67176 8.29595 7.69998C8.23681 7.93717 8.16443 8.17087 8.07915 8.39998C8.06921 8.44755 8.05584 8.49434 8.03915 8.53998C7.87938 8.95304 7.58292 9.29891 7.19915 9.51998C6.86996 9.73651 6.49179 9.86715 6.09915 9.89998C6.07093 9.89662 6.04246 9.90374 6.01915 9.91998C6.00629 9.9447 5.99944 9.97211 5.99915 9.99998V10.02C6.00158 10.0411 6.00839 10.0616 6.01915 10.08C6.04274 10.0987 6.06999 10.1123 6.09915 10.12C6.49136 10.1397 6.87117 10.264 7.19915 10.48C7.57734 10.7077 7.87195 11.0514 8.03915 11.46C8.14581 11.7666 8.23248 12.0533 8.29915 12.32C8.29823 12.3308 8.29953 12.3417 8.30296 12.352C8.3064 12.3624 8.31191 12.3719 8.31915 12.38C8.34486 12.39 8.37174 12.3967 8.39915 12.4C8.42701 12.3997 8.45442 12.3928 8.47915 12.38C8.49551 12.3622 8.50901 12.3419 8.51915 12.32C8.57945 12.0282 8.65964 11.7408 8.75915 11.46C8.92634 11.0514 9.22095 10.7077 9.59915 10.48C9.72497 10.3992 9.85907 10.3322 9.99915 10.28C10.2291 10.1886 10.4721 10.1346 10.7191 10.12C10.74 10.1096 10.7591 10.0961 10.7759 10.08C10.7878 10.0618 10.7957 10.0414 10.7991 10.02Z" fill="#FF71BA"/>
</g>
<defs>
<clipPath id="clip0_953_95">
<rect width="16" height="16" fill="white"/>
</clipPath>
</defs>
</svg>

<svg xmlns="http://www.w3.org/2000/svg" width="16" height="16" fill="none" viewBox="0 0 16 16"><g clip-path="url(#a)"><path fill="#baff51" d="M6.8 6.618v-.019a.2.2 0 0 0-.02-.073.07.07 0 0 0-.054-.019 2.2 2.2 0 0 1-.66-.165 2 2 0 0 1-.367-.183 1.78 1.78 0 0 1-.77-.898 1 1 0 0 0-.055-.128 7 7 0 0 1-.164-.64.2.2 0 0 0-.037-.074.2.2 0 0 0-.074-.02.3.3 0 0 0-.073.019.1.1 0 0 0-.019.073q-.083.325-.201.64a1 1 0 0 1-.037.128c-.147.38-.42.698-.773.9a2.16 2.16 0 0 1-1.008.348.1.1 0 0 0-.074.019.2.2 0 0 0-.018.073v.019a.14.14 0 0 0 .018.055.2.2 0 0 0 .074.037c.36.018.707.131 1.008.33.347.208.617.523.77.898q.147.42.24.788a.07.07 0 0 0 .019.055.3.3 0 0 0 .073.018.2.2 0 0 0 .074-.018.2.2 0 0 0 .037-.055q.083-.402.22-.788a1.88 1.88 0 0 1 .77-.899 2 2 0 0 1 .367-.183c.21-.084.433-.133.66-.146a.2.2 0 0 0 .055-.037.14.14 0 0 0 .018-.055"/><path fill="#51cfff" d="M16 4.829v-.03a.3.3 0 0 0-.031-.12.12.12 0 0 0-.09-.03 3.7 3.7 0 0 1-1.08-.27 3 3 0 0 1-.6-.3 2.9 2.9 0 0 1-1.263-1.47 2 2 0 0 0-.09-.21 11 11 0 0 1-.267-1.05.3.3 0 0 0-.06-.12.3.3 0 0 0-.12-.03.5.5 0 0 0-.12.03.17.17 0 0 0-.03.12q-.135.535-.33 1.05a2 2 0 0 1-.06.21 2.9 2.9 0 0 1-1.26 1.47c-.494.325-1.06.52-1.65.57a.17.17 0 0 0-.12.03.3.3 0 0 0-.03.12v.03a.2.2 0 0 0 .03.09.3.3 0 0 0 .12.06c.589.03 1.158.216 1.65.54.567.342 1.01.857 1.26 1.47q.24.69.39 1.29a.12.12 0 0 0 .031.09.5.5 0 0 0 .12.03.3.3 0 0 0 .12-.03.4.4 0 0 0 .06-.09q.135-.658.36-1.29a3.08 3.08 0 0 1 1.26-1.47q.284-.18.6-.3c.344-.137.709-.218 1.08-.24a.4.4 0 0 0 .089-.06.2.2 0 0 0 .03-.09"/><path stroke="currentColor" stroke-linecap="round" d="M14.8 8.366v4.32A1.225 1.225 0 0 1 13.4 14H2.6c-.934 0-1.4-.378-1.4-1.312V4.213a1.29 1.29 0 0 1 1.4-1.4L8.37 2.8"/><path fill="#ff71ba" d="M10.8 10.02V10a.2.2 0 0 0-.02-.08.08.08 0 0 0-.06-.02 2.4 2.4 0 0 1-.72-.18 2 2 0 0 1-.4-.2 1.94 1.94 0 0 1-.84-.98 1 1 0 0 0-.064-.14 7 7 0 0 1-.18-.7.2.2 0 0 0-.04-.08.2.2 0 0 0-.08-.02.3.3 0 0 0-.08.02.12.12 0 0 0-.02.08q-.09.355-.217.7-.015.071-.04.14c-.16.413-.456.759-.84.98a2.36 2.36 0 0 1-1.1.38.12.12 0 0 0-.08.02A.2.2 0 0 0 6 10v.02q.005.032.02.06.036.028.08.04a2.2 2.2 0 0 1 1.1.36c.378.228.673.571.84.98q.16.46.26.86a.08.08 0 0 0 .02.06.3.3 0 0 0 .08.02.2.2 0 0 0 .08-.02.2.2 0 0 0 .04-.06q.09-.439.24-.86a2.05 2.05 0 0 1 .84-.98q.19-.121.4-.2a2.3 2.3 0 0 1 .72-.16.2.2 0 0 0 .057-.04.2.2 0 0 0 .023-.06"/></g><defs><clipPath id="a"><path fill="#fff" d="M0 0h16v16H0z"/></clipPath></defs></svg>
